build/img/contacts/tg.svg

<svg width="21" height="21" viewBox="0 0 21 21" fill="none" xmlns="http://www.w3.org/2000/svg">
<path d="M10.5 21C16.3004 21 21 16.3004 21 10.5C21 4.69963 16.3004 0 10.5 0C4.69963 0 0 4.69963 0 10.5C0 16.3004 4.69963 21 10.5 21ZM4.80463 10.2725L14.9284 6.36912C15.3983 6.19937 15.8086 6.48375 15.6564 7.19425L15.6572 7.19337L13.9335 15.3143C13.8057 15.89 13.4636 16.03 12.985 15.7587L10.36 13.8241L9.09387 15.0439C8.95387 15.1839 8.83575 15.302 8.5645 15.302L8.75088 12.6306L13.6159 8.2355C13.8276 8.04912 13.5686 7.94413 13.2895 8.12963L7.27738 11.9149L4.68563 11.1064C4.123 10.9279 4.11075 10.5437 4.80463 10.2725Z" fill="#555665"/>
</svg>

<svg width="21" height="21" fill="none" xmlns="http://www.w3.org/2000/svg"><path d="M10.5 21C16.3 21 21 16.3 21 10.5S16.3 0 10.5 0 0 4.7 0 10.5 4.7 21 10.5 21zM4.805 10.273l10.123-3.904c.47-.17.88.115.728.825h.001l-1.723 8.12c-.128.576-.47.716-.949.445l-2.625-1.935-1.266 1.22c-.14.14-.258.258-.53.258l.187-2.671 4.865-4.396c.212-.186-.047-.29-.326-.105l-6.013 3.785-2.591-.809c-.563-.178-.575-.562.119-.833z" fill="#555665"/></svg>
